X:1
T:[ID 5-32b]
T:[ID 5-32b]
T:Bezeichnung standardisiert: Tantz Tantz
T:Urheber unbekannt Datum in der hier transkribierten schriftlichen Quelle: 1773
C:Urheber unbekannt
C:Datum in der hier transkribierten schriftlichen Quelle: 1773
L:1/8
M:2/4
K:D
V:1 treble 
V:1
 A2 A2 | A/B/A/G/ FD | BBBB | B2 e2 | (d/c/B/A/) (c/B/A/^G/) | A2 A,2 :: e2 e2 | e/f/e/d/ cA | %8
 ffff | gf/g/ ea | g/f/e/d/ f/e/d/c/ | d2 D2 :| %12

